img/lucasribeiro.svg

<svg width="231" height="29" viewBox="0 0 231 29" fill="none" xmlns="http://www.w3.org/2000/svg">
<path d="M15.848 21.196H18.08V28H0.619995V26.092L4.04 25.3L3.572 26.056V4.852L4.04 5.608L0.619995 4.888V2.98L10.556 2.8V4.708L6.812 5.608L7.244 4.852V25.912L6.632 25.3H15.704L15.128 25.948L15.848 21.196Z" fill="#081546"/>
<path d="M27.1182 28.36C25.5342 28.36 24.2142 27.856 23.1582 26.848C22.1262 25.84 21.6102 24.304 21.6102 22.24V11.08L22.0062 11.656L18.9102 10.936V9.028L25.2102 8.812V21.628C25.2102 22.972 25.5102 23.968 26.1102 24.616C26.7342 25.264 27.5622 25.588 28.5942 25.588C29.4102 25.588 30.2862 25.372 31.2222 24.94C32.1822 24.484 33.1182 23.8 34.0302 22.888L33.7782 23.608V11.008L34.1742 11.656L31.0782 10.936V9.028L37.3782 8.776V25.948L36.8742 25.336L40.0422 26.056V27.964L34.5702 28.216L34.0662 24.652L34.5702 24.832C33.3942 26.032 32.1462 26.92 30.8262 27.496C29.5302 28.072 28.2942 28.36 27.1182 28.36Z" fill="#081546"/>
<path d="M50.6631 28.36C49.1031 28.36 47.6871 27.976 46.4151 27.208C45.1431 26.44 44.1351 25.336 43.3911 23.896C42.6711 22.456 42.3111 20.716 42.3111 18.676C42.3111 16.876 42.5631 15.34 43.0671 14.068C43.5951 12.796 44.2911 11.752 45.1551 10.936C46.0431 10.12 47.0391 9.52 48.1431 9.136C49.2471 8.752 50.3991 8.56 51.5991 8.56C52.6311 8.56 53.6991 8.704 54.8031 8.992C55.9311 9.256 56.8911 9.592 57.6831 10L57.5391 14.788H55.1631L54.6591 11.548L54.9831 11.836C54.4791 11.596 53.9151 11.428 53.2911 11.332C52.6671 11.236 52.1031 11.188 51.5991 11.188C50.4231 11.188 49.4151 11.488 48.5751 12.088C47.7591 12.664 47.1351 13.504 46.7031 14.608C46.2711 15.688 46.0551 16.972 46.0551 18.46C46.0551 19.996 46.2831 21.304 46.7391 22.384C47.2191 23.464 47.8671 24.28 48.6831 24.832C49.4991 25.36 50.4351 25.624 51.4911 25.624C52.3071 25.624 53.1831 25.456 54.1191 25.12C55.0551 24.784 56.0271 24.268 57.0351 23.572L58.2951 25.48C56.9991 26.464 55.7151 27.196 54.4431 27.676C53.1711 28.132 51.9111 28.36 50.6631 28.36Z" fill="#081546"/>
<path d="M75.2545 26.056L74.7145 25.3L77.9545 26.056V27.964L72.4825 28.216L71.9785 24.76L72.2665 24.868C71.2345 26.044 70.1185 26.92 68.9185 27.496C67.7185 28.072 66.5545 28.36 65.4265 28.36C64.0345 28.36 62.8345 27.904 61.8265 26.992C60.8425 26.08 60.3505 24.712 60.3505 22.888C60.3505 21.496 60.6505 20.416 61.2505 19.648C61.8505 18.856 62.6905 18.292 63.7705 17.956C64.8505 17.62 66.1225 17.452 67.5865 17.452H71.9785L71.6545 17.848V14.752C71.6545 13.504 71.3305 12.616 70.6825 12.088C70.0345 11.536 69.1345 11.26 67.9825 11.26C67.3825 11.26 66.7465 11.32 66.0745 11.44C65.4265 11.56 64.7185 11.752 63.9505 12.016L64.4545 11.512L64.0585 14.716H61.6825L61.3945 9.928C62.8585 9.472 64.2025 9.136 65.4265 8.92C66.6745 8.68 67.8265 8.56 68.8825 8.56C70.8985 8.56 72.4585 9.004 73.5625 9.892C74.6905 10.78 75.2545 12.184 75.2545 14.104V26.056ZM63.9865 22.636C63.9865 23.668 64.2385 24.436 64.7425 24.94C65.2465 25.42 65.8825 25.66 66.6505 25.66C67.4185 25.66 68.2585 25.42 69.1705 24.94C70.1065 24.436 71.0065 23.776 71.8705 22.96L71.6545 23.86V19.396L71.9785 19.756H68.1625C66.5785 19.756 65.4865 19.996 64.8865 20.476C64.2865 20.956 63.9865 21.676 63.9865 22.636Z" fill="#081546"/>
<path d="M84.1026 13.6C84.1026 14.296 84.3426 14.848 84.8226 15.256C85.3026 15.64 85.9266 15.964 86.6946 16.228C87.4626 16.492 88.2786 16.756 89.1426 17.02C90.0306 17.284 90.8586 17.62 91.6266 18.028C92.3946 18.436 93.0186 18.988 93.4986 19.684C94.0026 20.356 94.2546 21.244 94.2546 22.348C94.2546 23.644 93.8946 24.736 93.1746 25.624C92.4786 26.512 91.5186 27.196 90.2946 27.676C89.0706 28.132 87.7026 28.36 86.1906 28.36C85.3026 28.36 84.3666 28.288 83.3826 28.144C82.3986 28 81.3906 27.784 80.3586 27.496L80.6106 22.42H82.8786L83.2746 25.84L82.9146 25.408C83.4426 25.552 84.0066 25.672 84.6066 25.768C85.2306 25.84 85.7946 25.876 86.2986 25.876C87.0426 25.876 87.7386 25.768 88.3866 25.552C89.0586 25.336 89.5986 25.012 90.0066 24.58C90.4386 24.124 90.6546 23.572 90.6546 22.924C90.6546 22.204 90.4026 21.64 89.8986 21.232C89.4186 20.8 88.7946 20.452 88.0266 20.188C87.2586 19.924 86.4426 19.66 85.5786 19.396C84.7386 19.132 83.9346 18.796 83.1666 18.388C82.3986 17.98 81.7746 17.44 81.2946 16.768C80.8146 16.096 80.5746 15.196 80.5746 14.068C80.5746 12.796 80.8986 11.752 81.5466 10.936C82.1946 10.12 83.0586 9.52 84.1386 9.136C85.2186 8.752 86.3706 8.56 87.5946 8.56C88.4346 8.56 89.3586 8.644 90.3666 8.812C91.3986 8.98 92.4546 9.232 93.5346 9.568L93.3546 13.924H91.0506L90.5106 11.008L91.0146 11.584C89.8146 11.224 88.7106 11.044 87.7026 11.044C86.6466 11.044 85.7826 11.272 85.1106 11.728C84.4386 12.184 84.1026 12.808 84.1026 13.6Z" fill="#081546"/>
<path d="M104.366 28V26.092L107.822 25.3L107.318 26.056V4.852L108.002 5.644L104.366 4.888V2.98L111.134 2.8H115.094C117.878 2.8 119.978 3.376 121.394 4.528C122.81 5.68 123.518 7.348 123.518 9.532C123.518 11.5 122.894 13.12 121.646 14.392C120.422 15.664 118.526 16.444 115.958 16.732V16.3C116.894 16.372 117.65 16.564 118.226 16.876C118.826 17.164 119.33 17.572 119.738 18.1C120.146 18.604 120.53 19.228 120.89 19.972L123.878 25.912L122.762 25.192L125.894 26.092V28H120.962L117.686 20.944C117.23 19.96 116.81 19.204 116.426 18.676C116.042 18.124 115.574 17.74 115.022 17.524C114.47 17.308 113.666 17.2 112.61 17.2L110.342 17.236L110.99 16.66V26.056L110.45 25.264L114.446 26.092V28H104.366ZM110.99 15.544L110.342 14.608H113.618C115.61 14.608 117.122 14.2 118.154 13.384C119.21 12.568 119.738 11.356 119.738 9.748C119.738 8.38 119.306 7.336 118.442 6.616C117.602 5.872 116.342 5.5 114.662 5.5H110.342L110.99 4.852V15.544Z" fill="#081546"/>
<path d="M133.684 25.804L133.36 25.372L136.384 26.092V28H127.42V26.092L130.444 25.372L130.084 25.804V11.296L130.408 11.62L127.42 10.936V9.028L133.684 8.812V25.804ZM131.704 5.284C131.056 5.284 130.516 5.08 130.084 4.672C129.676 4.264 129.472 3.688 129.472 2.944C129.472 2.176 129.688 1.6 130.12 1.216C130.552 0.807998 131.092 0.603998 131.74 0.603998C132.412 0.603998 132.952 0.807998 133.36 1.216C133.792 1.6 134.008 2.176 134.008 2.944C134.008 3.712 133.78 4.3 133.324 4.708C132.892 5.092 132.352 5.284 131.704 5.284Z" fill="#081546"/>
<path d="M146.305 28.36C145.417 28.36 144.469 28.3 143.461 28.18C142.453 28.06 141.373 27.88 140.221 27.64V2.08L140.869 3.088L137.557 2.296V0.387999L143.821 0.135998V11.98L143.353 11.44C144.313 10.528 145.321 9.82 146.377 9.316C147.457 8.812 148.549 8.56 149.653 8.56C151.021 8.56 152.233 8.932 153.289 9.676C154.345 10.42 155.185 11.5 155.809 12.916C156.433 14.332 156.745 16.084 156.745 18.172C156.745 19.708 156.553 21.112 156.169 22.384C155.785 23.632 155.173 24.7 154.333 25.588C153.517 26.476 152.437 27.16 151.093 27.64C149.773 28.12 148.177 28.36 146.305 28.36ZM146.953 25.732C148.945 25.732 150.445 25.108 151.453 23.86C152.485 22.612 153.001 20.812 153.001 18.46C153.001 16.948 152.797 15.664 152.389 14.608C152.005 13.528 151.465 12.7 150.769 12.124C150.073 11.548 149.257 11.26 148.321 11.26C147.553 11.26 146.749 11.464 145.909 11.872C145.093 12.28 144.253 12.904 143.389 13.744L143.821 12.52V26.164L143.353 25.228C144.721 25.564 145.921 25.732 146.953 25.732Z" fill="#081546"/>
<path d="M168.194 28.36C166.538 28.36 165.074 28 163.802 27.28C162.554 26.536 161.57 25.456 160.85 24.04C160.154 22.6 159.806 20.848 159.806 18.784C159.806 16.672 160.166 14.86 160.886 13.348C161.63 11.812 162.674 10.636 164.018 9.82C165.386 8.98 166.982 8.56 168.806 8.56C170.558 8.56 171.986 8.92 173.09 9.64C174.218 10.36 175.046 11.356 175.574 12.628C176.126 13.876 176.402 15.304 176.402 16.912C176.402 17.224 176.39 17.536 176.366 17.848C176.342 18.16 176.306 18.52 176.258 18.928H162.614V16.444H173.018L172.694 16.66C172.718 15.676 172.598 14.776 172.334 13.96C172.07 13.144 171.626 12.496 171.002 12.016C170.378 11.512 169.55 11.26 168.518 11.26C167.39 11.26 166.454 11.572 165.71 12.196C164.966 12.796 164.414 13.624 164.054 14.68C163.694 15.736 163.514 16.948 163.514 18.316C163.514 19.78 163.718 21.064 164.126 22.168C164.534 23.248 165.146 24.1 165.962 24.724C166.802 25.324 167.834 25.624 169.058 25.624C169.922 25.624 170.858 25.456 171.866 25.12C172.898 24.784 173.954 24.28 175.034 23.608L176.294 25.588C174.95 26.524 173.582 27.22 172.19 27.676C170.822 28.132 169.49 28.36 168.194 28.36Z" fill="#081546"/>
<path d="M185.469 25.804L185.145 25.372L188.169 26.092V28H179.205V26.092L182.229 25.372L181.869 25.804V11.296L182.193 11.62L179.205 10.936V9.028L185.469 8.812V25.804ZM183.489 5.284C182.841 5.284 182.301 5.08 181.869 4.672C181.461 4.264 181.257 3.688 181.257 2.944C181.257 2.176 181.473 1.6 181.905 1.216C182.337 0.807998 182.877 0.603998 183.525 0.603998C184.197 0.603998 184.737 0.807998 185.145 1.216C185.577 1.6 185.793 2.176 185.793 2.944C185.793 3.712 185.565 4.3 185.109 4.708C184.677 5.092 184.137 5.284 183.489 5.284Z" fill="#081546"/>
<path d="M190.174 28V26.092L193.27 25.372L192.838 25.984V11.044L193.306 11.692L190.174 10.936V9.028L195.646 8.776L196.114 12.268L195.646 12.124C196.726 10.996 197.782 10.12 198.814 9.496C199.87 8.872 200.998 8.56 202.198 8.56C202.966 8.56 203.782 8.68 204.646 8.92L204.394 14.644H202.198L201.73 10.828L202.126 11.584C201.958 11.536 201.778 11.5 201.586 11.476C201.418 11.452 201.25 11.44 201.082 11.44C200.194 11.44 199.318 11.716 198.454 12.268C197.614 12.796 196.834 13.48 196.114 14.32L196.438 13.276V25.984L195.97 25.372L199.786 26.092V28H190.174Z" fill="#081546"/>
<path d="M215.003 8.56C217.691 8.56 219.803 9.4 221.339 11.08C222.875 12.736 223.643 15.088 223.643 18.136C223.643 20.2 223.271 22 222.527 23.536C221.783 25.072 220.715 26.26 219.323 27.1C217.955 27.94 216.299 28.36 214.355 28.36C211.691 28.36 209.615 27.544 208.127 25.912C206.639 24.256 205.895 21.904 205.895 18.856C205.895 16.72 206.255 14.884 206.975 13.348C207.695 11.812 208.727 10.636 210.071 9.82C211.439 8.98 213.083 8.56 215.003 8.56ZM214.823 11.188C213.119 11.188 211.823 11.836 210.935 13.132C210.071 14.404 209.639 16.252 209.639 18.676C209.639 21.052 210.059 22.828 210.899 24.004C211.739 25.156 212.963 25.732 214.571 25.732C215.747 25.732 216.719 25.444 217.487 24.868C218.279 24.292 218.867 23.452 219.251 22.348C219.659 21.22 219.863 19.876 219.863 18.316C219.863 15.94 219.431 14.164 218.567 12.988C217.703 11.788 216.455 11.188 214.823 11.188Z" fill="#081546"/>
<path d="M226.255 26.056C226.255 25.384 226.471 24.856 226.903 24.472C227.359 24.064 227.875 23.86 228.451 23.86C229.147 23.86 229.687 24.064 230.071 24.472C230.479 24.856 230.683 25.384 230.683 26.056C230.683 26.728 230.455 27.268 229.999 27.676C229.567 28.06 229.051 28.252 228.451 28.252C227.779 28.252 227.239 28.06 226.831 27.676C226.447 27.268 226.255 26.728 226.255 26.056Z" fill="#081546"/>
</svg>

<svg width="231" height="29" fill="none" xmlns="http://www.w3.org/2000/svg"><path d="M15.848 21.196h2.232V28H.62v-1.908l3.42-.792-.468.756V4.852l.468.756-3.42-.72V2.98l9.936-.18v1.908l-3.744.9.432-.756v21.06l-.612-.612h9.072l-.576.648.72-4.752ZM27.118 28.36c-1.584 0-2.904-.504-3.96-1.512-1.032-1.008-1.548-2.544-1.548-4.608V11.08l.396.576-3.096-.72V9.028l6.3-.216v12.816c0 1.344.3 2.34.9 2.988.624.648 1.452.972 2.484.972.816 0 1.692-.216 2.628-.648.96-.456 1.896-1.14 2.808-2.052l-.252.72v-12.6l.396.648-3.096-.72V9.028l6.3-.252v17.172l-.504-.612 3.168.72v1.908l-5.472.252-.504-3.564.504.18c-1.176 1.2-2.424 2.088-3.744 2.664-1.296.576-2.532.864-3.708.864ZM50.663 28.36c-1.56 0-2.976-.384-4.248-1.152-1.272-.768-2.28-1.872-3.024-3.312-.72-1.44-1.08-3.18-1.08-5.22 0-1.8.252-3.336.756-4.608.528-1.272 1.224-2.316 2.088-3.132a8.513 8.513 0 0 1 2.988-1.8A10.444 10.444 0 0 1 51.6 8.56c1.032 0 2.1.144 3.204.432 1.128.264 2.088.6 2.88 1.008l-.144 4.788h-2.376l-.504-3.24.324.288a6.058 6.058 0 0 0-1.692-.504 11.225 11.225 0 0 0-1.692-.144c-1.176 0-2.184.3-3.024.9-.816.576-1.44 1.416-1.872 2.52-.432 1.08-.648 2.364-.648 3.852 0 1.536.228 2.844.684 3.924.48 1.08 1.128 1.896 1.944 2.448.816.528 1.752.792 2.808.792.816 0 1.692-.168 2.628-.504.936-.336 1.908-.852 2.916-1.548l1.26 1.908c-1.296.984-2.58 1.716-3.852 2.196-1.272.456-2.532.684-3.78.684ZM75.254 26.056l-.54-.756 3.24.756v1.908l-5.471.252-.505-3.456.288.108c-1.032 1.176-2.148 2.052-3.348 2.628-1.2.576-2.364.864-3.492.864-1.392 0-2.592-.456-3.6-1.368-.983-.912-1.476-2.28-1.476-4.104 0-1.392.3-2.472.9-3.24.6-.792 1.44-1.356 2.52-1.692 1.08-.336 2.352-.504 3.816-.504h4.392l-.323.396v-3.096c0-1.248-.325-2.136-.972-2.664-.649-.552-1.549-.828-2.7-.828-.6 0-1.237.06-1.909.18-.647.12-1.355.312-2.123.576l.503-.504-.395 3.204h-2.377l-.288-4.788c1.465-.456 2.809-.792 4.033-1.008 1.247-.24 2.4-.36 3.455-.36 2.016 0 3.576.444 4.68 1.332 1.129.888 1.692 2.292 1.692 4.212v11.952Zm-11.268-3.42c0 1.032.253 1.8.757 2.304.504.48 1.14.72 1.907.72.768 0 1.608-.24 2.52-.72a12.748 12.748 0 0 0 2.7-1.98l-.216.9v-4.464l.325.36h-3.817c-1.584 0-2.675.24-3.276.72-.6.48-.9 1.2-.9 2.16ZM84.103 13.6c0 .696.24 1.248.72 1.656.48.384 1.104.708 1.872.972s1.584.528 2.448.792c.888.264 1.716.6 2.484 1.008.768.408 1.392.96 1.872 1.656.504.672.756 1.56.756 2.664 0 1.296-.36 2.388-1.08 3.276-.696.888-1.656 1.572-2.88 2.052-1.224.456-2.592.684-4.104.684a19.42 19.42 0 0 1-2.808-.216 24.4 24.4 0 0 1-3.024-.648l.252-5.076h2.268l.396 3.42-.36-.432c.528.144 1.092.264 1.692.36a14.89 14.89 0 0 0 1.692.108c.744 0 1.44-.108 2.088-.324.672-.216 1.212-.54 1.62-.972a2.32 2.32 0 0 0 .648-1.656c0-.72-.252-1.284-.756-1.692-.48-.432-1.104-.78-1.872-1.044a74.626 74.626 0 0 0-2.448-.792c-.84-.264-1.644-.6-2.412-1.008a5.336 5.336 0 0 1-1.872-1.62c-.48-.672-.72-1.572-.72-2.7 0-1.272.324-2.316.972-3.132.648-.816 1.512-1.416 2.592-1.8a10.24 10.24 0 0 1 3.456-.576c.84 0 1.764.084 2.772.252a23.24 23.24 0 0 1 3.168.756l-.18 4.356H91.05l-.54-2.916.504.576c-1.2-.36-2.304-.54-3.312-.54-1.056 0-1.92.228-2.592.684-.672.456-1.008 1.08-1.008 1.872ZM104.366 28v-1.908l3.456-.792-.504.756V4.852l.684.792-3.636-.756V2.98l6.768-.18h3.96c2.784 0 4.884.576 6.3 1.728 1.416 1.152 2.124 2.82 2.124 5.004 0 1.968-.624 3.588-1.872 4.86-1.224 1.272-3.12 2.052-5.688 2.34V16.3c.936.072 1.692.264 2.268.576.6.288 1.104.696 1.512 1.224.408.504.792 1.128 1.152 1.872l2.988 5.94-1.116-.72 3.132.9V28h-4.932l-3.276-7.056c-.456-.984-.876-1.74-1.26-2.268-.384-.552-.852-.936-1.404-1.152-.552-.216-1.356-.324-2.412-.324l-2.268.036.648-.576v9.396l-.54-.792 3.996.828V28h-10.08Zm6.624-12.456-.648-.936h3.276c1.992 0 3.504-.408 4.536-1.224 1.056-.816 1.584-2.028 1.584-3.636 0-1.368-.432-2.412-1.296-3.132-.84-.744-2.1-1.116-3.78-1.116h-4.32l.648-.648v10.692ZM133.684 25.804l-.324-.432 3.024.72V28h-8.964v-1.908l3.024-.72-.36.432V11.296l.324.324-2.988-.684V9.028l6.264-.216v16.992Zm-1.98-20.52c-.648 0-1.188-.204-1.62-.612-.408-.408-.612-.984-.612-1.728 0-.768.216-1.344.648-1.728.432-.408.972-.612 1.62-.612.672 0 1.212.204 1.62.612.432.384.648.96.648 1.728s-.228 1.356-.684 1.764c-.432.384-.972.576-1.62.576ZM146.305 28.36c-.888 0-1.836-.06-2.844-.18-1.008-.12-2.088-.3-3.24-.54V2.08l.648 1.008-3.312-.792V.388l6.264-.252V11.98l-.468-.54c.96-.912 1.968-1.62 3.024-2.124 1.08-.504 2.172-.756 3.276-.756 1.368 0 2.58.372 3.636 1.116 1.056.744 1.896 1.824 2.52 3.24.624 1.416.936 3.168.936 5.256 0 1.536-.192 2.94-.576 4.212-.384 1.248-.996 2.316-1.836 3.204-.816.888-1.896 1.572-3.24 2.052-1.32.48-2.916.72-4.788.72Zm.648-2.628c1.992 0 3.492-.624 4.5-1.872 1.032-1.248 1.548-3.048 1.548-5.4 0-1.512-.204-2.796-.612-3.852-.384-1.08-.924-1.908-1.62-2.484-.696-.576-1.512-.864-2.448-.864-.768 0-1.572.204-2.412.612-.816.408-1.656 1.032-2.52 1.872l.432-1.224v13.644l-.468-.936c1.368.336 2.568.504 3.6.504ZM168.194 28.36c-1.656 0-3.12-.36-4.392-1.08-1.248-.744-2.232-1.824-2.952-3.24-.696-1.44-1.044-3.192-1.044-5.256 0-2.112.36-3.924 1.08-5.436.744-1.536 1.788-2.712 3.132-3.528 1.368-.84 2.964-1.26 4.788-1.26 1.752 0 3.18.36 4.284 1.08 1.128.72 1.956 1.716 2.484 2.988.552 1.248.828 2.676.828 4.284 0 .312-.012.624-.036.936-.024.312-.06.672-.108 1.08h-13.644v-2.484h10.404l-.324.216c.024-.984-.096-1.884-.36-2.7-.264-.816-.708-1.464-1.332-1.944-.624-.504-1.452-.756-2.484-.756-1.128 0-2.064.312-2.808.936-.744.6-1.296 1.428-1.656 2.484-.36 1.056-.54 2.268-.54 3.636 0 1.464.204 2.748.612 3.852.408 1.08 1.02 1.932 1.836 2.556.84.6 1.872.9 3.096.9.864 0 1.8-.168 2.808-.504 1.032-.336 2.088-.84 3.168-1.512l1.26 1.98c-1.344.936-2.712 1.632-4.104 2.088-1.368.456-2.7.684-3.996.684ZM185.469 25.804l-.324-.432 3.024.72V28h-8.964v-1.908l3.024-.72-.36.432V11.296l.324.324-2.988-.684V9.028l6.264-.216v16.992Zm-1.98-20.52c-.648 0-1.188-.204-1.62-.612-.408-.408-.612-.984-.612-1.728 0-.768.216-1.344.648-1.728.432-.408.972-.612 1.62-.612.672 0 1.212.204 1.62.612.432.384.648.96.648 1.728s-.228 1.356-.684 1.764c-.432.384-.972.576-1.62.576ZM190.174 28v-1.908l3.096-.72-.432.612v-14.94l.468.648-3.132-.756V9.028l5.472-.252.468 3.492-.468-.144c1.08-1.128 2.136-2.004 3.168-2.628a6.542 6.542 0 0 1 3.384-.936c.768 0 1.584.12 2.448.36l-.252 5.724h-2.196l-.468-3.816.396.756a3.582 3.582 0 0 0-.54-.108 3.56 3.56 0 0 0-.504-.036c-.888 0-1.764.276-2.628.828-.84.528-1.62 1.212-2.34 2.052l.324-1.044v12.708l-.468-.612 3.816.72V28h-9.612ZM215.003 8.56c2.688 0 4.8.84 6.336 2.52 1.536 1.656 2.304 4.008 2.304 7.056 0 2.064-.372 3.864-1.116 5.4-.744 1.536-1.812 2.724-3.204 3.564-1.368.84-3.024 1.26-4.968 1.26-2.664 0-4.74-.816-6.228-2.448-1.488-1.656-2.232-4.008-2.232-7.056 0-2.136.36-3.972 1.08-5.508.72-1.536 1.752-2.712 3.096-3.528 1.368-.84 3.012-1.26 4.932-1.26Zm-.18 2.628c-1.704 0-3 .648-3.888 1.944-.864 1.272-1.296 3.12-1.296 5.544 0 2.376.42 4.152 1.26 5.328.84 1.152 2.064 1.728 3.672 1.728 1.176 0 2.148-.288 2.916-.864.792-.576 1.38-1.416 1.764-2.52.408-1.128.612-2.472.612-4.032 0-2.376-.432-4.152-1.296-5.328-.864-1.2-2.112-1.8-3.744-1.8ZM226.255 26.056c0-.672.216-1.2.648-1.584.456-.408.972-.612 1.548-.612.696 0 1.236.204 1.62.612.408.384.612.912.612 1.584s-.228 1.212-.684 1.62a2.251 2.251 0 0 1-1.548.576c-.672 0-1.212-.192-1.62-.576-.384-.408-.576-.948-.576-1.62Z" fill="#081546"/></svg>
